glitch-avatars-svg/base_avatar/Avatar.fla/placeholder symbols 3/Avatar_sideFootOffside3.svg

<?xml version="1.0" encoding="UTF-8" standalone="no"?>
<!-- Generator: flash2svg, http://dissentgraphics.com/tools/flash2svg -->

<svg
   xmlns:dc="http://purl.org/dc/elements/1.1/"
   xmlns:cc="http://creativecommons.org/ns#"
   xmlns:rdf="http://www.w3.org/1999/02/22-rdf-syntax-ns#"
   xmlns:svg="http://www.w3.org/2000/svg"
   xmlns="http://www.w3.org/2000/svg"
   xmlns:sodipodi="http://sodipodi.sourceforge.net/DTD/sodipodi-0.dtd"
   xmlns:inkscape="http://www.inkscape.org/namespaces/inkscape"
   id="Avatar"
   image-rendering="auto"
   version="1.1"
   x="0px"
   y="0px"
   width="18.016977"
   height="10.352026"
   viewBox="0 0 18.016977 10.352026"
   inkscape:version="0.48.4 r9939"
   sodipodi:docname="Avatar_sideFootOffside3.svg">
  <metadata
     id="metadata3101">
    <rdf:RDF>
      <cc:Work
         rdf:about="">
        <dc:format>image/svg+xml</dc:format>
        <dc:type
           rdf:resource="http://purl.org/dc/dcmitype/StillImage" />
      </cc:Work>
    </rdf:RDF>
  </metadata>
  <sodipodi:namedview
     pagecolor="#ffffff"
     bordercolor="#666666"
     borderopacity="1"
     objecttolerance="10"
     gridtolerance="10"
     guidetolerance="10"
     inkscape:pageopacity="0"
     inkscape:pageshadow="2"
     inkscape:window-width="640"
     inkscape:window-height="480"
     id="namedview3099"
     showgrid="false"
     fit-margin-top="0"
     fit-margin-left="0"
     fit-margin-right="0"
     fit-margin-bottom="0"
     inkscape:zoom="1.8730159"
     inkscape:cx="40.7"
     inkscape:cy="-39.507998"
     inkscape:window-x="0"
     inkscape:window-y="0"
     inkscape:window-maximized="0"
     inkscape:current-layer="Avatar" />
  <defs
     id="defs3083">
    <radialGradient
       gradientUnits="userSpaceOnUse"
       color-interpolation="sRGB"
       r="10.841155"
       cx="3.6500001"
       cy="1.9"
       fx="3.6500001"
       fy="1.9"
       gradientTransform="matrix(1,-0.02967834,-0.19520569,-0.92694092,0.35,3.75)"
       id="radialGradient">
      <stop
         stop-color="#FFF"
         stop-opacity="0.7058823529411765"
         offset="0"
         id="stop3086" />
      <stop
         stop-color="#FFF"
         stop-opacity="0.2980392156862745"
         offset="1"
         id="stop3088" />
    </radialGradient>
    <radialGradient
       gradientUnits="userSpaceOnUse"
       color-interpolation="sRGB"
       r="10.846"
       cx="4.0019999"
       cy="5.651"
       fx="4.0019999"
       fy="5.651"
       gradientTransform="matrix(1,-0.03,-0.195,-0.927,0.75,7.2)"
       id="radialGradient1">
      <stop
         stop-color="#FFF"
         stop-opacity="0.7058823529411765"
         offset="0"
         id="stop3091" />
      <stop
         stop-color="#FFF"
         stop-opacity="0.2980392156862745"
         offset="1"
         id="stop3093" />
    </radialGradient>
  </defs>
  <g
     id="sideFootOffside4"
     overflow="visible"
     style="overflow:visible"
     transform="translate(6.7,0.70202592)">
    <g
       id="sideFootOffside3_0">
      <g
         id="element">
        <path
           id="path"
           d="m 2.1,-0.25 -0.6,-0.2 -0.15,-0.2 -0.3,0.1 -0.1,0 c -0.3,-0.15 -0.6,-0.2 -1,-0.1 -0.75,0 -1.75,0.25 -3.05,0.6 l -0.1,0 0.05,0.05 c -2.2,0.7 -3.35,1.35 -3.55,2.05 0,0.2 0,0.7 0.1,1.45 0.1,0.9 0.2,1.6 0.45,2.15 l -0.1,0 0.15,0.2 0.1,0.25 c 0.45,0.6 1.4,1.15 2.85,1.5 l 0.05,0.05 c 0.45,0.15 1,0.25 1.5,0.3 0.6,0.1 1.1,0.25 1.7,0.5 l 1.15,0.4 0.3,0.2 0,-0.1 2.6,0.25 1.35,-0.1 0.25,-0.05 0.9,0.4 C 6.85,9.6 7.1,9.65 7.35,9.65 7.85,9.6 8.3,9.4 8.8,9.15 9.35,8.8 9.6,8.35 9.3,7.75 l 0.15,0.05 0,-0.1 0.9,-0.25 c 0.5,-0.2 0.65,-0.7 0.5,-1.4 l -0.1,-0.3 0.1,0 C 10.8,5.55 10.65,5.4 10.45,5.25 10.85,5.15 11.1,5 11.2,4.8 11.4,4.3 11.35,3.75 11,3.25 10.8,2.9 10.5,2.6 10,2.35 9.65,2.2 9,2.15 7.95,2 L 7.85,2.05 7.8,1.95 7.7,1.95 C 7.15,1.5 6.5,1.05 5.75,0.85 4.55,0.35 3.3,0.05 2.1,-0.25 z m -0.05,0.2 c 1.1,0.3 2,0.5 2.7,0.75 L 4.05,0.9 3.55,0.7 C 2.5,0.25 1.6,-0.05 0.7,-0.15 l 0.4,-0.15 0.95,0.25 z m 8.55,6.1 c 0.1,0.6 0,0.95 -0.4,1.15 L 9.45,7.45 C 9.4,7.1 9.05,6.7 8.65,6.1 8.3,5.85 8.05,5.65 7.85,5.5 L 7.8,5.4 C 7.75,5.35 7.65,5.25 7.7,5.15 7.7,4.9 7.8,4.7 8,4.5 L 8.2,4.25 9,4.5 l 0.9,0.55 0,0.05 -0.65,0.05 0.6,0.2 c 0.05,-0.05 0.15,0 0.3,0.1 0.25,0.2 0.4,0.35 0.45,0.6 z m 0.1,-1.2 C 10.6,5 10.45,5 10.2,5 L 8.55,4.15 8.85,4.15 9,4.2 8.95,4 9.1,3.1 9.4,2.85 9.9,3.15 c 0.7,0.6 0.9,1.15 0.7,1.6 l 0.1,0.1 z M 11,4.7 C 11,4.1 10.8,3.5 10.1,3 l -0.35,-0.3 0.45,0 c 0.2,0.15 0.4,0.3 0.55,0.6 0.3,0.55 0.4,1.05 0.25,1.4 z M 8.05,2.3 c 0.6,0 1.2,0.05 1.65,0.2 L 9.35,2.6 C 8.6,2.4 7.9,2.4 7.15,2.65 L 7.1,2.6 7.7,2.25 7.85,2.35 8.05,2.3 z M 8.9,3 C 8.8,3.2 8.75,3.5 8.65,3.9 8.55,3.85 8.35,3.9 8.15,4.05 7.65,3.85 7.2,3.9 6.75,3.9 L 7,2.8 l 0.1,0.05 0.05,0 0.7,-0.1 c 0.45,-0.05 0.9,-0.1 1.3,0 L 8.9,3 z M 6.9,2.45 C 6.4,2.1 5.6,1.65 4.35,1 L 5.15,0.85 5.7,1.05 7.5,2.1 C 7.3,2.15 7.1,2.25 6.9,2.45 z M 6.75,2.6 6.5,3.8 C 6.1,3.4 5.05,2.7 3.3,1.95 L 2.95,1.8 C 3.15,1.7 3.55,1.5 4.1,1.15 5.4,1.7 6.25,2.2 6.8,2.55 L 6.75,2.6 z M 6.7,4.15 C 7.3,4.2 7.75,4.2 7.9,4.25 L 7.8,4.35 C 7.55,4.65 7.4,5 7.45,5.35 L 7.4,5.3 C 6.85,5.1 6.3,5.05 5.8,5.1 5.85,4.85 6,4.6 6,4.6 6.05,4.4 6.25,4.25 6.55,4.15 l 0.15,0 z M 5.85,5.4 c 0.3,-0.1 0.7,-0.05 1.2,0 C 6.4,5.65 6.05,5.95 6,6.45 L 5.95,6.55 C 5.9,6.85 5.85,7.25 5.9,7.7 L 5.2,7.2 4.9,7.05 4.65,6.85 4,6.5 4.05,6.3 C 4.3,5.8 4.85,5.4 5.75,5.45 L 5.8,5.4 5.85,5.4 z M 5.7,4.4 C 5.55,4.65 5.55,4.85 5.55,5.1 L 1.4,3.15 c 0.3,-0.4 0.8,-0.8 1.25,-1.2 l 0.1,0 0.45,0.2 C 5,2.95 6.05,3.5 6.35,3.95 6,4.1 5.8,4.3 5.7,4.4 z m -2,-3.35 -1,0.6 C 1.55,1.1 0.35,0.75 -1.05,0.4 L 0.15,0 c 1.1,0.05 2.2,0.4 3.25,0.9 L 3.7,1.05 z M 1.15,3 C 0.15,2.55 -1.2,2.15 -2.65,1.6 -2.2,1.15 -1.75,0.8 -1.35,0.55 0.2,0.95 1.5,1.4 2.4,1.8 1.95,2.25 1.5,2.65 1.15,3 z M 0.1,4.65 -0.65,4.3 -3.7,3.55 c 0.2,-0.5 0.5,-1.1 0.9,-1.7 1.25,0.4 2.6,0.8 3.85,1.35 C 0.5,3.85 0.25,4.3 0.1,4.65 z m 1.2,-1.3 4,1.8 C 4.5,5.35 4,5.7 3.8,6.25 l 0,0.1 C 2.8,5.85 1.7,5.2 0.4,4.75 0.55,4.25 0.85,3.8 1.3,3.35 z M 0,5.45 C -0.1,6.2 0.05,6.9 0.45,7.75 L -0.25,7.3 -0.3,7.25 -3.6,6.7 C -4,5.9 -4.1,5 -3.75,3.8 -3,3.95 -1.95,4.2 -0.6,4.6 L 0,4.85 0,5.45 z M 0.35,4.95 C 1.6,5.4 2.7,5.95 3.7,6.65 3.55,7.35 3.6,7.9 4.05,8.2 L 2.3,8.25 C 1.75,8.2 1.2,8.05 0.75,7.85 0.35,6.95 0.15,6.2 0.25,5.45 0.2,5.4 0.2,5.15 0.35,4.95 z M 4.8,7.25 5.95,7.9 C 5.95,8.25 6,8.5 6.2,8.75 5.7,8.45 5.55,8.3 5.5,8.25 L 5.45,8.2 5.4,8.2 C 5.05,8.2 4.65,8.25 4.1,8.15 L 4.25,8.1 C 4.2,8 4.1,7.85 4,7.7 3.9,7.4 3.95,7.05 3.95,6.8 L 4.6,7.1 4.8,7.25 z M 0.9,8.15 C 1.35,8.3 1.85,8.3 2.35,8.45 l 2.95,0 c 0.45,0.3 0.95,0.65 1.3,0.7 L 6.75,9.3 5.8,8.8 5.65,8.75 l -3,0.2 C 2.35,8.9 1.9,8.8 1.35,8.6 L 0.9,8.15 z M 0.85,8.5 0.25,8.25 C -0.75,7.95 -1.4,7.7 -1.65,7.7 -1.9,7.7 -2.45,7.6 -3.05,7.4 L -3.45,7 -0.4,7.55 C -0.35,7.6 0,7.8 0.6,8.05 L 0.85,8.5 z M 9,7.7 9.1,8.05 C 8.1,8.5 7.15,8.4 6.1,7.8 L 6.15,6.55 6.25,6.5 c 0.05,-0.45 0.4,-0.75 1.2,-0.9 0.3,0.15 0.65,0.35 1,0.65 0.4,0.6 0.75,1 0.8,1.25 L 9.05,7.55 8.9,7.55 9,7.7 z M 8.15,9.1 C 7.75,9.15 7.3,9.1 6.65,8.9 6.45,8.75 6.3,8.5 6.15,8.05 c 0.6,0.3 1.15,0.5 1.9,0.5 0.3,0 0.7,-0.1 1.15,-0.3 C 9.1,8.6 8.95,8.8 8.65,8.95 l -0.5,0.2 0,-0.05 z M -0.4,-0.15 -1.45,0.3 -2.6,0 l 1.3,-0.2 0,0.05 0.9,0 z m -4.55,1.1 C -4.4,0.7 -3.75,0.4 -3.05,0.2 l 1.35,0.3 c -0.6,0.3 -1,0.7 -1.2,1.05 l -2.05,-0.6 z m 1,2.5 -2.5,-0.35 0.05,-1 c 0.05,-0.3 0.45,-0.6 1.15,-0.95 l 0.05,0 2.15,0.6 c -0.25,0.4 -0.6,0.95 -0.9,1.7 z M -6.4,3.35 c 0.7,0.05 1.45,0.15 2.35,0.35 -0.3,1.2 -0.3,2.15 0.1,2.95 C -4.65,6.5 -5.3,6.15 -5.9,5.7 -6.05,5.25 -6.25,4.5 -6.4,3.35 z m 2.9,3.9 c -1.05,-0.3 -1.75,-0.6 -2.05,-1 0.6,0.4 1.2,0.55 1.8,0.65 l 0.25,0.35 z"
           inkscape:connector-curvature="0"
           style="fill:url(#radialGradient1)" />
      </g>
    </g>
  </g>
</svg>

<?xml version="1.0" encoding="utf-8"?>
<!-- Generator: flash2svg, http://dissentgraphics.com/tools/flash2svg -->
<svg xmlns:xlink="http://www.w3.org/1999/xlink" id="Avatar" image-rendering="auto" baseProfile="basic" version="1.1" x="0px" y="0px" width="68" height="126" xmlns="http://www.w3.org/2000/svg" viewBox="0 0 68 126">
  <defs>
    <radialGradient gradientUnits="userSpaceOnUse" color-interpolation="sRGB" r="10.841155021347157" cx="3.65" cy="1.9" fx="3.6500000000000004" fy="1.9" gradientTransform="matrix(1 -0.0296783447265625 -0.1952056884765625 -0.92694091796875 0.35 3.75)" id="radialGradient">
      <stop stop-color="#FFF" stop-opacity="0.7058823529411765" offset="0"/>
      <stop stop-color="#FFF" stop-opacity="0.2980392156862745" offset="1"/>
    </radialGradient>
    <radialGradient gradientUnits="userSpaceOnUse" color-interpolation="sRGB" r="10.846" cx="4.002" cy="5.651" fx="4.002" fy="5.651" gradientTransform="matrix(1 -0.03 -0.195 -0.927 0.75 7.2)" id="radialGradient1">
      <stop stop-color="#FFF" stop-opacity="0.7058823529411765" offset="0"/>
      <stop stop-color="#FFF" stop-opacity="0.2980392156862745" offset="1"/>
    </radialGradient>
  </defs>
  <g id="sideFootOffside4" overflow="visible">
    <g id="sideFootOffside3_0">
      <g id="element">
        <path id="path" fill="url(#radialGradient1)" d="M2.1,-0.25 L1.5,-0.45 1.35,-0.65 1.05,-0.55 0.95,-0.55 C0.65,-0.7 0.35,-0.75 -0.05,-0.65 -0.8,-0.65 -1.8,-0.4 -3.1,-0.05 L-3.2,-0.05 -3.15,0 C-5.35,0.7 -6.5,1.35 -6.7,2.05 -6.7,2.25 -6.7,2.75 -6.6,3.5 -6.5,4.4 -6.4,5.1 -6.15,5.65 L-6.25,5.65 -6.1,5.85 -6,6.1 C-5.55,6.7 -4.6,7.25 -3.15,7.6 L-3.1,7.65 C-2.65,7.8 -2.1,7.9 -1.6,7.95 -1,8.05 -0.5,8.2 0.1,8.45 L1.25,8.85 1.55,9.05 1.55,8.95 4.15,9.2 5.5,9.1 5.75,9.05 6.65,9.45 C6.85,9.6 7.1,9.65 7.35,9.65 7.85,9.6 8.3,9.4 8.8,9.15 9.35,8.8 9.6,8.35 9.3,7.75 L9.45,7.8 9.45,7.7 10.35,7.45 C10.85,7.25 11,6.75 10.85,6.05 L10.75,5.75 10.85,5.75 C10.8,5.55 10.65,5.4 10.45,5.25 10.85,5.15 11.1,5 11.2,4.8 11.4,4.3 11.35,3.75 11,3.25 10.8,2.9 10.5,2.6 10,2.35 9.65,2.2 9,2.15 7.95,2 L7.85,2.05 7.8,1.95 7.7,1.95 C7.15,1.5 6.5,1.05 5.75,0.85 4.55,0.35 3.3,0.05 2.1,-0.25z M2.05,-0.05 C3.15,0.25 4.05,0.45 4.75,0.7 L4.05,0.9 3.55,0.7 C2.5,0.25 1.6,-0.05 0.7,-0.15 L1.1,-0.3 2.05,-0.05z M10.6,6.05 C10.7,6.65 10.6,7 10.2,7.2 L9.45,7.45 C9.4,7.1 9.05,6.7 8.65,6.1 8.3,5.85 8.05,5.65 7.85,5.5 L7.8,5.4 C7.75,5.35 7.65,5.25 7.7,5.15 7.7,4.9 7.8,4.7 8,4.5 L8.2,4.25 9,4.5 9.9,5.05 9.9,5.1 9.25,5.15 9.85,5.35 C9.9,5.3 10,5.35 10.15,5.45 10.4,5.65 10.55,5.8 10.6,6.05z M10.7,4.85 C10.6,5 10.45,5 10.2,5 L8.55,4.15 8.85,4.15 9,4.2 8.95,4 9.1,3.1 9.4,2.85 9.9,3.15 C10.6,3.75 10.8,4.3 10.6,4.75 L10.7,4.85z M11,4.7 C11,4.1 10.8,3.5 10.1,3 L9.75,2.7 10.2,2.7 C10.4,2.85 10.6,3 10.75,3.3 11.05,3.85 11.15,4.35 11,4.7z M8.05,2.3 C8.65,2.3 9.25,2.35 9.7,2.5 L9.35,2.6 C8.6,2.4 7.9,2.4 7.15,2.65 L7.1,2.6 7.7,2.25 7.85,2.35 8.05,2.3z M8.9,3 C8.8,3.2 8.75,3.5 8.65,3.9 8.55,3.85 8.35,3.9 8.15,4.05 7.65,3.85 7.2,3.9 6.75,3.9 L7,2.8 7.1,2.85 7.15,2.85 7.85,2.75 C8.3,2.7 8.75,2.65 9.15,2.75 L8.9,3z M6.9,2.45 C6.4,2.1 5.6,1.65 4.35,1 L5.15,0.85 5.7,1.05 7.5,2.1 C7.3,2.15 7.1,2.25 6.9,2.45z M6.75,2.6 L6.5,3.8 C6.1,3.4 5.05,2.7 3.3,1.95 L2.95,1.8 C3.15,1.7 3.55,1.5 4.1,1.15 5.4,1.7 6.25,2.2 6.8,2.55 L6.75,2.6z M6.7,4.15 C7.3,4.2 7.75,4.2 7.9,4.25 L7.8,4.35 C7.55,4.65 7.4,5 7.45,5.35 L7.4,5.3 C6.85,5.1 6.3,5.05 5.8,5.1 5.85,4.85 6,4.6 6,4.6 6.05,4.4 6.25,4.25 6.55,4.15 L6.7,4.15z M5.85,5.4 C6.15,5.3 6.55,5.35 7.05,5.4 6.4,5.65 6.05,5.95 6,6.45 L5.95,6.55 C5.9,6.85 5.85,7.25 5.9,7.7 L5.2,7.2 4.9,7.05 4.65,6.85 4,6.5 4.05,6.3 C4.3,5.8 4.85,5.4 5.75,5.45 L5.8,5.4 5.85,5.4z M5.7,4.4 C5.55,4.65 5.55,4.85 5.55,5.1 L1.4,3.15 C1.7,2.75 2.2,2.35 2.65,1.95 L2.75,1.95 3.2,2.15 C5,2.95 6.05,3.5 6.35,3.95 6,4.1 5.8,4.3 5.7,4.4z M3.7,1.05 L2.7,1.65 C1.55,1.1 0.35,0.75 -1.05,0.4 L0.15,0 C1.25,0.05 2.35,0.4 3.4,0.9 L3.7,1.05z M1.15,3 C0.15,2.55 -1.2,2.15 -2.65,1.6 -2.2,1.15 -1.75,0.8 -1.35,0.55 0.2,0.95 1.5,1.4 2.4,1.8 1.95,2.25 1.5,2.65 1.15,3z M0.1,4.65 L-0.65,4.3 -3.7,3.55 C-3.5,3.05 -3.2,2.45 -2.8,1.85 -1.55,2.25 -0.2,2.65 1.05,3.2 0.5,3.85 0.25,4.3 0.1,4.65z M1.3,3.35 L5.3,5.15 C4.5,5.35 4,5.7 3.8,6.25 L3.8,6.35 C2.8,5.85 1.7,5.2 0.4,4.75 0.55,4.25 0.85,3.8 1.3,3.35z M0,5.45 C-0.1,6.2 0.05,6.9 0.45,7.75 L-0.25,7.3 -0.3,7.25 -3.6,6.7 C-4,5.9 -4.1,5 -3.75,3.8 -3,3.95 -1.95,4.2 -0.6,4.6 L0,4.85 0,5.45z M0.35,4.95 C1.6,5.4 2.7,5.95 3.7,6.65 3.55,7.35 3.6,7.9 4.05,8.2 L2.3,8.25 C1.75,8.2 1.2,8.05 0.75,7.85 0.35,6.95 0.15,6.2 0.25,5.45 0.2,5.4 0.2,5.15 0.35,4.95z M4.8,7.25 L5.95,7.9 C5.95,8.25 6,8.5 6.2,8.75 5.7,8.45 5.55,8.3 5.5,8.25 L5.45,8.2 5.4,8.2 C5.05,8.2 4.65,8.25 4.1,8.15 L4.25,8.1 C4.2,8 4.1,7.85 4,7.7 3.9,7.4 3.95,7.05 3.95,6.8 L4.6,7.1 4.8,7.25z M0.9,8.15 C1.35,8.3 1.85,8.3 2.35,8.45 L5.3,8.45 C5.75,8.75 6.25,9.1 6.6,9.15 L6.75,9.3 5.8,8.8 5.65,8.75 2.65,8.95 C2.35,8.9 1.9,8.8 1.35,8.6 L0.9,8.15z M0.85,8.5 L0.25,8.25 C-0.75,7.95 -1.4,7.7 -1.65,7.7 -1.9,7.7 -2.45,7.6 -3.05,7.4 L-3.45,7 -0.4,7.55 C-0.35,7.6 0,7.8 0.6,8.05 L0.85,8.5z M9,7.7 L9.1,8.05 C8.1,8.5 7.15,8.4 6.1,7.8 L6.15,6.55 6.25,6.5 C6.3,6.05 6.65,5.75 7.45,5.6 7.75,5.75 8.1,5.95 8.45,6.25 8.85,6.85 9.2,7.25 9.25,7.5 L9.05,7.55 8.9,7.55 9,7.7z M8.15,9.1 C7.75,9.15 7.3,9.1 6.65,8.9 6.45,8.75 6.3,8.5 6.15,8.05 6.75,8.35 7.3,8.55 8.05,8.55 8.35,8.55 8.75,8.45 9.2,8.25 9.1,8.6 8.95,8.8 8.65,8.95 L8.15,9.15 8.15,9.1z M-0.4,-0.15 L-1.45,0.3 -2.6,0 -1.3,-0.2 -1.3,-0.15 -0.4,-0.15z M-4.95,0.95 C-4.4,0.7 -3.75,0.4 -3.05,0.2 L-1.7,0.5 C-2.3,0.8 -2.7,1.2 -2.9,1.55 L-4.95,0.95z M-3.95,3.45 L-6.45,3.1 -6.4,2.1 C-6.35,1.8 -5.95,1.5 -5.25,1.15 L-5.2,1.15 -3.05,1.75 C-3.3,2.15 -3.65,2.7 -3.95,3.45z M-6.4,3.35 C-5.7,3.4 -4.95,3.5 -4.05,3.7 -4.35,4.9 -4.35,5.85 -3.95,6.65 -4.65,6.5 -5.3,6.15 -5.9,5.7 -6.05,5.25 -6.25,4.5 -6.4,3.35z M-3.5,7.25 C-4.55,6.95 -5.25,6.65 -5.55,6.25 -4.95,6.65 -4.35,6.8 -3.75,6.9 L-3.5,7.25z"/>
      </g>
    </g>
  </g>
</svg>
